images/4649906.svg

<?xml version="1.0" encoding="UTF-8"?>
<svg xmlns="http://www.w3.org/2000/svg" xmlns:xlink="http://www.w3.org/1999/xlink" width="300pt" height="300pt" viewBox="0 0 300 300" version="1.1">
<defs>
<g>
<symbol overflow="visible" id="glyph0-0">
<path style="stroke:none;" d="M 0.796875 2.828125 L 0.796875 -11.28125 L 8.796875 -11.28125 L 8.796875 2.828125 Z M 1.703125 1.9375 L 7.90625 1.9375 L 7.90625 -10.390625 L 1.703125 -10.390625 Z M 1.703125 1.9375 "/>
</symbol>
<symbol overflow="visible" id="glyph0-1">
<path style="stroke:none;" d="M 1.578125 -11.671875 L 3.703125 -11.671875 L 8.875 -1.90625 L 8.875 -11.671875 L 10.40625 -11.671875 L 10.40625 0 L 8.28125 0 L 3.109375 -9.765625 L 3.109375 0 L 1.578125 0 Z M 1.578125 -11.671875 "/>
</symbol>
<symbol overflow="visible" id="glyph0-2">
<path style="stroke:none;" d="M 5.484375 -4.40625 C 4.328125 -4.40625 3.523438 -4.269531 3.078125 -4 C 2.628906 -3.738281 2.40625 -3.285156 2.40625 -2.640625 C 2.40625 -2.128906 2.570312 -1.722656 2.90625 -1.421875 C 3.238281 -1.128906 3.695312 -0.984375 4.28125 -0.984375 C 5.070312 -0.984375 5.707031 -1.265625 6.1875 -1.828125 C 6.675781 -2.390625 6.921875 -3.140625 6.921875 -4.078125 L 6.921875 -4.40625 Z M 8.359375 -5 L 8.359375 0 L 6.921875 0 L 6.921875 -1.328125 C 6.585938 -0.796875 6.175781 -0.398438 5.6875 -0.140625 C 5.195312 0.109375 4.597656 0.234375 3.890625 0.234375 C 2.992188 0.234375 2.28125 -0.015625 1.75 -0.515625 C 1.226562 -1.023438 0.96875 -1.703125 0.96875 -2.546875 C 0.96875 -3.535156 1.296875 -4.28125 1.953125 -4.78125 C 2.609375 -5.28125 3.59375 -5.53125 4.90625 -5.53125 L 6.921875 -5.53125 L 6.921875 -5.671875 C 6.921875 -6.328125 6.703125 -6.835938 6.265625 -7.203125 C 5.828125 -7.566406 5.21875 -7.75 4.4375 -7.75 C 3.9375 -7.75 3.445312 -7.6875 2.96875 -7.5625 C 2.5 -7.445312 2.046875 -7.269531 1.609375 -7.03125 L 1.609375 -8.359375 C 2.128906 -8.554688 2.632812 -8.707031 3.125 -8.8125 C 3.625 -8.914062 4.109375 -8.96875 4.578125 -8.96875 C 5.847656 -8.96875 6.796875 -8.640625 7.421875 -7.984375 C 8.046875 -7.328125 8.359375 -6.332031 8.359375 -5 Z M 8.359375 -5 "/>
</symbol>
<symbol overflow="visible" id="glyph1-0">
<path style="stroke:none;" d="M 0.640625 2.296875 L 0.640625 -9.171875 L 7.140625 -9.171875 L 7.140625 2.296875 Z M 1.375 1.578125 L 6.421875 1.578125 L 6.421875 -8.4375 L 1.375 -8.4375 Z M 1.375 1.578125 "/>
</symbol>
<symbol overflow="visible" id="glyph1-1">
<path style="stroke:none;" d="M 0.640625 -4.078125 L 4.0625 -4.078125 L 4.0625 -3.046875 L 0.640625 -3.046875 Z M 0.640625 -4.078125 "/>
</symbol>
<symbol overflow="visible" id="glyph1-2">
<path style="stroke:none;" d="M 5.984375 -8.15625 L 5.984375 -4.609375 L 9.515625 -4.609375 L 9.515625 -3.53125 L 5.984375 -3.53125 L 5.984375 0 L 4.90625 0 L 4.90625 -3.53125 L 1.375 -3.53125 L 1.375 -4.609375 L 4.90625 -4.609375 L 4.90625 -8.15625 Z M 5.984375 -8.15625 "/>
</symbol>
</g>
</defs>
<g id="surface42293">
<rect x="0" y="0" width="300" height="300" style="fill:rgb(100%,100%,100%);fill-opacity:1;stroke:none;"/>
<path style="fill:none;stroke-width:1.2;stroke-linecap:butt;stroke-linejoin:miter;stroke:rgb(0%,0%,0%);stroke-opacity:1;stroke-miterlimit:10;" d="M 166.679688 150 L 155.4375 134.527344 "/>
<path style="fill:none;stroke-width:1.2;stroke-linecap:butt;stroke-linejoin:miter;stroke:rgb(0%,0%,100%);stroke-opacity:1;stroke-miterlimit:10;" d="M 155.4375 134.527344 L 144.199219 119.054688 "/>
<path style="fill:none;stroke-width:1.2;stroke-linecap:butt;stroke-linejoin:miter;stroke:rgb(0%,0%,0%);stroke-opacity:1;stroke-miterlimit:10;" d="M 157.152344 152.195312 L 148.15625 139.816406 "/>
<path style="fill:none;stroke-width:1.2;stroke-linecap:butt;stroke-linejoin:miter;stroke:rgb(0%,0%,100%);stroke-opacity:1;stroke-miterlimit:10;" d="M 148.15625 139.816406 L 139.164062 127.441406 "/>
<path style="fill:none;stroke-width:1.2;stroke-linecap:butt;stroke-linejoin:miter;stroke:rgb(0%,0%,100%);stroke-opacity:1;stroke-miterlimit:10;" d="M 144.199219 180.945312 L 155.4375 165.472656 "/>
<path style="fill:none;stroke-width:1.2;stroke-linecap:butt;stroke-linejoin:miter;stroke:rgb(0%,0%,0%);stroke-opacity:1;stroke-miterlimit:10;" d="M 155.4375 165.472656 L 166.679688 150 "/>
<path style="fill:none;stroke-width:1.2;stroke-linecap:butt;stroke-linejoin:miter;stroke:rgb(0%,0%,100%);stroke-opacity:1;stroke-miterlimit:10;" d="M 144.199219 119.054688 L 126.007812 124.964844 "/>
<path style="fill:none;stroke-width:1.2;stroke-linecap:butt;stroke-linejoin:miter;stroke:rgb(0%,0%,0%);stroke-opacity:1;stroke-miterlimit:10;" d="M 126.007812 124.964844 L 107.820312 130.875 "/>
<path style=" stroke:none;fill-rule:nonzero;fill:rgb(100%,100%,100%);fill-opacity:1;" d="M 138.199219 109.554688 L 150.199219 109.554688 L 150.199219 128.554688 L 138.199219 128.554688 Z M 138.199219 109.554688 "/>
<g style="fill:rgb(0%,0%,100%);fill-opacity:1;">
  <use xlink:href="#glyph0-1" x="138.199219" y="124.40625"/>
</g>
<path style="fill:none;stroke-width:1.2;stroke-linecap:butt;stroke-linejoin:miter;stroke:rgb(0%,0%,0%);stroke-opacity:1;stroke-miterlimit:10;" d="M 107.820312 130.875 L 107.820312 150 "/>
<path style="fill:none;stroke-width:1.2;stroke-linecap:butt;stroke-linejoin:miter;stroke:rgb(0%,0%,100%);stroke-opacity:1;stroke-miterlimit:10;" d="M 107.820312 150 L 107.820312 169.125 "/>
<path style="fill:none;stroke-width:1.2;stroke-linecap:butt;stroke-linejoin:miter;stroke:rgb(0%,0%,0%);stroke-opacity:1;stroke-miterlimit:10;" d="M 116.820312 134.699219 L 116.820312 150 "/>
<path style="fill:none;stroke-width:1.2;stroke-linecap:butt;stroke-linejoin:miter;stroke:rgb(0%,0%,100%);stroke-opacity:1;stroke-miterlimit:10;" d="M 116.820312 150 L 116.820312 165.300781 "/>
<path style="fill:none;stroke-width:1.2;stroke-linecap:butt;stroke-linejoin:miter;stroke:rgb(0%,0%,100%);stroke-opacity:1;stroke-miterlimit:10;" d="M 107.820312 169.125 L 144.199219 180.945312 "/>
<path style=" stroke:none;fill-rule:nonzero;fill:rgb(100%,100%,100%);fill-opacity:1;" d="M 101.820312 159.625 L 113.820312 159.625 L 113.820312 178.625 L 101.820312 178.625 Z M 101.820312 159.625 "/>
<g style="fill:rgb(0%,0%,100%);fill-opacity:1;">
  <use xlink:href="#glyph0-1" x="101.820312" y="174.476562"/>
</g>
<path style=" stroke:none;fill-rule:nonzero;fill:rgb(100%,100%,100%);fill-opacity:1;" d="M 136.199219 169.945312 L 153.199219 169.945312 L 153.199219 191.945312 L 136.199219 191.945312 Z M 136.199219 169.945312 "/>
<g style="fill:rgb(0%,0%,100%);fill-opacity:1;">
  <use xlink:href="#glyph0-1" x="136.199219" y="187.204102"/>
</g>
<g style="fill:rgb(0%,0%,100%);fill-opacity:1;">
  <use xlink:href="#glyph1-1" x="148.167969" y="182.321289"/>
</g>
<path style=" stroke:none;fill-rule:nonzero;fill:rgb(100%,100%,100%);fill-opacity:1;" d="M 176.179688 139 L 209.179688 139 L 209.179688 161 L 176.179688 161 Z M 176.179688 139 "/>
<g style="fill:rgb(0%,0%,0%);fill-opacity:1;">
  <use xlink:href="#glyph0-1" x="176.179688" y="156.258789"/>
  <use xlink:href="#glyph0-2" x="188.148438" y="156.258789"/>
</g>
<g style="fill:rgb(0%,0%,0%);fill-opacity:1;">
  <use xlink:href="#glyph1-2" x="197.953125" y="151.375977"/>
</g>
</g>
</svg>

<svg xmlns="http://www.w3.org/2000/svg" xmlns:xlink="http://www.w3.org/1999/xlink" width="300pt" height="300pt" viewBox="0 0 300 300"><defs><symbol overflow="visible"><path d="M.797 2.828v-14.11h8V2.83zm.906-.89h6.203v-12.33H1.703zm0 0"/></symbol><symbol overflow="visible" id="a"><path d="M1.578-11.672h2.125l5.172 9.766v-9.766h1.53V0H8.282L3.11-9.766V0H1.577zm0 0"/></symbol><symbol overflow="visible" id="c"><path d="M5.484-4.406c-1.156 0-1.96.136-2.406.406-.45.262-.672.715-.672 1.36 0 .51.164.917.5 1.218.332.293.79.438 1.375.438.79 0 1.427-.282 1.907-.844.49-.563.735-1.313.735-2.25v-.328zM8.36-5v5H6.92v-1.328c-.336.53-.746.93-1.234 1.187-.493.25-1.09.374-1.797.374-.898 0-1.61-.25-2.14-.75-.523-.507-.78-1.187-.78-2.03 0-.99.327-1.735.983-2.235.656-.5 1.64-.75 2.953-.75h2.016v-.142c0-.656-.22-1.164-.656-1.53-.438-.364-1.047-.548-1.829-.548-.5 0-.992.063-1.468.188-.47.117-.923.292-1.36.53v-1.327c.52-.195 1.023-.347 1.515-.453.5-.1.984-.156 1.453-.156 1.27 0 2.22.33 2.844.986.625.656.937 1.652.937 2.984zm0 0"/></symbol><symbol overflow="visible"><path d="M.64 2.297v-11.47h6.5v11.47zm.735-.72h5.047V-8.436H1.375zm0 0"/></symbol><symbol overflow="visible" id="b"><path d="M.64-4.078h3.422v1.03H.643zm0 0"/></symbol><symbol overflow="visible" id="d"><path d="M5.984-8.156v3.547h3.532v1.08H5.984V0H4.906v-3.53h-3.53v-1.08h3.53v-3.546zm0 0"/></symbol></defs><g><path fill="#fff" d="M0 0h300v300H0z"/><path d="M166.68 150l-11.243-15.473" stroke-width="1.2" stroke="#000" stroke-miterlimit="10" fill="none"/><path d="M155.438 134.527l-11.24-15.472" stroke-width="1.2" stroke="#00f" stroke-miterlimit="10" fill="none"/><path d="M157.152 152.195l-8.996-12.38" stroke-width="1.2" stroke="#000" stroke-miterlimit="10" fill="none"/><path d="M148.156 139.816l-8.992-12.375M144.2 180.945l11.238-15.472" stroke-width="1.2" stroke="#00f" stroke-miterlimit="10" fill="none"/><path d="M155.438 165.473L166.68 150" stroke-width="1.2" stroke="#000" stroke-miterlimit="10" fill="none"/><path d="M144.2 119.055l-18.192 5.91" stroke-width="1.2" stroke="#00f" stroke-miterlimit="10" fill="none"/><path d="M126.008 124.965l-18.188 5.91" stroke-width="1.2" stroke="#000" stroke-miterlimit="10" fill="none"/><path d="M138.2 109.555h12v19h-12zm0 0" fill="#fff"/><use xlink:href="#a" x="138.199" y="124.406" fill="#00f"/><path d="M107.82 130.875V150" stroke-width="1.2" stroke="#000" stroke-miterlimit="10" fill="none"/><path d="M107.82 150v19.125" stroke-width="1.2" stroke="#00f" stroke-miterlimit="10" fill="none"/><path d="M116.82 134.7V150" stroke-width="1.2" stroke="#000" stroke-miterlimit="10" fill="none"/><path d="M116.82 150v15.3M107.82 169.125l36.38 11.82" stroke-width="1.2" stroke="#00f" stroke-miterlimit="10" fill="none"/><path d="M101.82 159.625h12v19h-12zm0 0" fill="#fff"/><use xlink:href="#a" x="101.82" y="174.477" fill="#00f"/><path d="M136.2 169.945h17v22h-17zm0 0" fill="#fff"/><use xlink:href="#a" x="136.199" y="187.204" fill="#00f"/><use xlink:href="#b" x="148.168" y="182.321" fill="#00f"/><path d="M176.18 139h33v22h-33zm0 0" fill="#fff"/><use xlink:href="#a" x="176.18" y="156.259"/><use xlink:href="#c" x="188.148" y="156.259"/><use xlink:href="#d" x="197.953" y="151.376"/></g></svg>
